X:114
T:Winnie Hayes'
R:jig
M:6/8
K:G
edB A3 | BAG A3 | edB A2c | BAG Bcd | edB A3 | BAG A3 | age deg | age dBG ::
efg a3 | bag a2g | efg a3 | b3 gab | c'3 b3 | age a2b | age deg | age dBG :|
